!!!OTL: LIEBCHEN LASS DICH KUESSEN
!!!ARE: Europa, Mitteleuropa, Deutschland
!!!SCT: F1095
!!!YEM: Copyright 1995, estate of Helmut Schaffrath.
**kern
*ICvox
*Ivox
*M6/8
*k[b-]
*F:
=1
{8cc
8a
8f
8f
8e
8f
=2
4.dd
4.cc}
=3
{8.a
16g
8f
8f
8e
8f
=4
2g
4r}
=5
{4g
8ff
4ee
8dd
=6
4dd
8cc
8cc
8bn
8a}
=7
{4a
8g
8g
8ff
8bn
=8
4cc
4.r}
{16dd
16cc
=9
4cc
8g
4dd
8cc
=10
4.cc
4r}
{8cc
=11
4a
8cc
4g
8cc
=12
4.f
4r}
{8cc
=13
4a
8cc
4g
8a
=14
4f
2r}
==
!!!AGN: Wiegen - Lied
!!!ONB: ESAC (Essen Associative Code) Database: FINK
!!!AMT: compound duple
!!!AIN: vox
!!!EED: Helmut Schaffrath
!!!EEV: 1.0
*-
